X: 35330
T: Rosemary Lane
R: jig
M: 6/8
K: Dmajor
A2 G|:FEF DFA|dce dcB|AFd AGF|EFE EAG|
FEF DFA|dce dcB|A2A g2g|1 gec dAG:|2 gec d2||
|:f|aga fdf|gfg ece|fed Bcd|edB ABc|
dcd AFA|Bed cBA|faf gec|1 edc d2:|2 edc d3||

